X:13
T:ROND DE LOUDEAC 7
Z: Yves Belotteau
M:4/4
L:1/8
Q:1/4=150
K:C
|AcBA GABG|AcBA G3/2 z/2 A3/2 z/2 |AcBA GABG|AcBA G3/2 z/2 A3/2 z/2 |
Bcdc BABA|Bcdc B3/2 z/2 B3/2 z/2 |Bcdc BABA|Bcdc B3/2 z/2 B3/2 z/2 |
|:AceA GBdG|ABcd edcB|AceA GBdG|ABcB A3/2 z/2 A3/2 z/2:|
